svg/fluentui-system-icons/ic_fluent_food_apple_20_regular.svg

<svg width="20" height="20" viewBox="0 0 20 20" fill="none" xmlns="http://www.w3.org/2000/svg">
<path d="M7.22487 8.34197C7.31222 8.60393 7.17067 8.88711 6.90871 8.97446C6.63462 9.06586 6.37209 9.24129 6.19187 9.57919C6.00603 9.92761 5.87973 10.5018 5.99677 11.4381C6.03102 11.7121 5.83666 11.962 5.56265 11.9963C5.28864 12.0305 5.03875 11.8362 5.00449 11.5622C4.87154 10.4985 4.99533 9.69766 5.30952 9.10858C5.62933 8.50898 6.11675 8.18441 6.59238 8.02581C6.85434 7.93846 7.13752 8.08001 7.22487 8.34197ZM12.1585 2.97448C12.4205 2.88715 12.5621 2.60399 12.4748 2.34202C12.3874 2.08005 12.1043 1.93847 11.8423 2.02579C10.9045 2.33839 10.32 3.10813 9.97639 3.93283C9.9301 4.04394 9.88765 4.15717 9.84884 4.2719C9.66616 3.92546 9.42914 3.60019 9.13775 3.3088C8.32851 2.49956 7.25787 2.10954 6.19845 2.13876C5.61893 2.15474 5.15527 2.6184 5.13928 3.19793C5.11006 4.25735 5.50009 5.32799 6.30933 6.13723C6.31963 6.14754 6.32998 6.15778 6.34038 6.16795C4.67108 6.52888 3.34323 7.94524 3.19803 9.76024L3.19211 9.83414C3.06033 11.4814 3.4116 13.1314 4.20293 14.5822L4.56148 15.2396C4.57114 15.2573 4.58185 15.2744 4.59356 15.2908L5.59425 16.6917C6.55869 18.0419 8.50469 18.203 9.67798 17.0297C9.85607 16.8516 10.1448 16.8516 10.3229 17.0297C11.4962 18.203 13.4422 18.0419 14.4066 16.6917L15.4073 15.2908C15.419 15.2744 15.4297 15.2573 15.4394 15.2396L15.7979 14.5822C16.5893 13.1314 16.9405 11.4814 16.8087 9.83414L16.8028 9.76024C16.6159 7.42408 14.4697 5.74836 12.158 6.13365L10.5011 6.4098C10.5108 5.7289 10.6307 4.96255 10.8995 4.31744C11.1808 3.64214 11.5963 3.16188 12.1585 2.97448ZM8.71873 6.27962L8.56467 6.25394C7.99719 6.14415 7.45585 5.86955 7.01643 5.43012C6.40945 4.82314 6.11694 4.02169 6.1389 3.22549C6.14025 3.17664 6.17716 3.13973 6.22602 3.13838C7.02221 3.11642 7.82366 3.40892 8.43065 4.01591C9.03763 4.6229 9.33014 5.42435 9.30818 6.22054C9.30683 6.26939 9.26992 6.30631 9.22106 6.30765C9.05323 6.31228 8.88516 6.30294 8.71873 6.27962ZM8.39079 7.23876C8.44837 7.24966 8.50615 7.25928 8.56407 7.26764L9.34284 7.39743C9.77823 7.47 10.2226 7.47 10.658 7.39743L12.3224 7.12004C14.0562 6.83107 15.6659 8.08787 15.806 9.83999L15.8119 9.91389C15.9282 11.3674 15.6183 12.8233 14.92 14.1034L14.576 14.7341L13.5929 16.1105C12.9876 16.9578 11.7663 17.0589 11.03 16.3226C10.4614 15.754 9.53948 15.754 8.97087 16.3226C8.23453 17.0589 7.01325 16.9578 6.40798 16.1105L5.42489 14.7341L5.08083 14.1034C4.38259 12.8233 4.07265 11.3674 4.18893 9.91388L4.19484 9.83999C4.33501 8.08787 5.94468 6.83107 7.67848 7.12004L8.39079 7.23876Z" fill="#212121"/>
</svg>

<svg xmlns="http://www.w3.org/2000/svg" width="20" height="20"><path d="M7.225 8.342a.5.5 0 0 1-.316.632 1.22 1.22 0 0 0-.717.605c-.186.349-.312.923-.195 1.86a.5.5 0 0 1-.993.123c-.132-1.063-.009-1.864.306-2.453.32-.6.807-.925 1.282-1.083a.5.5 0 0 1 .633.316Zm4.934-5.368a.5.5 0 1 0-.317-.948c-.938.312-1.522 1.082-1.866 1.907a5.288 5.288 0 0 0-.127.339 3.998 3.998 0 0 0-.711-.963 3.99 3.99 0 0 0-2.94-1.17c-.58.016-1.043.48-1.059 1.059a3.99 3.99 0 0 0 1.201 2.97A4.002 4.002 0 0 0 3.198 9.76l-.006.074a8.5 8.5 0 0 0 1.01 4.748l.36.658c.01.017.02.034.032.05l1 1.402a2.685 2.685 0 0 0 4.084.338.456.456 0 0 1 .645 0 2.685 2.685 0 0 0 4.084-.338l1-1.401a.51.51 0 0 0 .032-.051l.359-.658a8.5 8.5 0 0 0 1.01-4.748l-.005-.074a4 4 0 0 0-4.645-3.626l-1.657.276c.01-.681.13-1.447.399-2.093.28-.675.696-1.155 1.258-1.343ZM8.719 6.28l-.154-.026a2.985 2.985 0 0 1-1.549-.824 2.99 2.99 0 0 1-.877-2.205.088.088 0 0 1 .087-.087 2.99 2.99 0 0 1 2.205.878c.607.607.9 1.408.877 2.205a.088.088 0 0 1-.087.087 3.02 3.02 0 0 1-.502-.028Zm-.328.959.173.029.779.13a4 4 0 0 0 1.315 0l1.664-.278a3 3 0 0 1 3.484 2.72l.006.074a7.5 7.5 0 0 1-.892 4.19l-.344.63-.983 1.376a1.685 1.685 0 0 1-2.563.213 1.456 1.456 0 0 0-2.06 0 1.685 1.685 0 0 1-2.562-.213l-.983-1.376-.344-.63a7.5 7.5 0 0 1-.892-4.19l.006-.074a3 3 0 0 1 3.483-2.72l.713.119Z"/></svg>
